X:17768
T:Marche de QuÃªteux Pomerleau
T:La Marche Pomerleau
M:C|
L:1/8
S:Lisa Ornstein who learned it from Henri Landry who learned it from
S:Thomas Pomerleau. This is a fairly simplified version.
S:The chords are my best guess of Martine Billette's accompaniment for AndrÃ© Brunet
S:on a YouTube video. I'm fairly confident about the E-major chord in the B part.
R:March
R:March
G:Marches ~ Canadian ~ Quebec
H:This tune is from the NH Country Dance website. Look for more tunes 
H:(New England, Canadian, Swedish) as well as resources for abc notation and 
H:New England traditional music and dance; URL below.
U:s = !slide!       % To preserve font, staff layout & other formatting,
U:t = !trill!       % use the file header at the URL below. There are
F:Tunes Home Page - http://nhcountrydance.com/fiddle/the-tunes.html
F:File Header & instructions - http://nhcountrydance.com/fiddle/headers.html
K:G
"D7" D2 EF |\
"G" G2A2 "D7" F2D2 | "C" ((3EFE) D^C "G" D2EF | "G" G2A2 "Em" G2B2 | "A7" GABG "D7" D2 EF |
"G" G2A2 "D7" F2D2 | "C" ((3EFE) D^C "G" D2EF | "C" G2A2 "D7" G2B2 |1 "G" G2>G2 :|2 "G" G4 G2 ||
|:AB\
| "C" c4 "G" B4 | "Am" B2AG FGAB | "D7" A2 D2 G2 A2 | "G" B2 AG "E7" A2 B2   |
"Am" c4 "G" B4  | "Am" B2AG A2AB | "D7" A2D2G2B2    |1 y"G" G4G2 :|2 y"G" GABG |]["Final" yyy "G" GABG "D7" D4  |]

